**kern	**kern	**dynam
*part1	*part1	*part1
*staff2	*staff1	*
*I"Piano	*	*
*clefF4	*clefG2	*
*k[f#]	*k[f#]	*
=1	=1	=1
8F#L] 8d] 8f#]	8f#L] 8dd] 8ff#]	.
8F#' 8c#X 8e	8f#' 8cc#X 8ee	.
8F#' 8B 8d	8f#' 8b 8dd	.
8F#'J 8A#X 8c#	8e'J 8f# 8a#X 8cc#	.
=	=	=
4BB 4F# 4B	2d 2f# 2b	.
8BBB	.	.
8r	.	.
=	=	=
(4.BB^	8d#X^L 8f# 8b	p
.	8B 8d# 8f#	.
.	8B 8d# 8f#	.
16AA#XLL	8BJ 8d# 8f#	.
16AAnJJ	.	.
=	=	=
8GGL	8BL 8e 8g	.
16FF#L	8B 8e 8g	.
16EEJJ	.	.
4BB)	8B 8d#X 8f#	.
.	8BJ 8d# 8f#	.
=	=	=
8qBBB/	.	.
(4.BB^	8d#X^L 8f# 8b	.
.	8B 8d# 8f#	.
.	8B 8d# 8f#	.
16AA#XLL	8BJ 8d# 8f#	.
16AAnJJ	.	.
=	=	=
8GGL	8BL 8e 8g	.
16FF#L	8B 8e 8g	.
16EEJJ	.	.
4BB)	8B 8d#X 8f#	.
.	8BJ 8d# 8f#	.
=	=	=
8qBBB/	.	.
(4.BB^	8d#X^L 8f# 8b	.
.	8B 8d# 8f#	.
.	8B 8d# 8f#	.
16AA#XLL	8BJ 8d# 8f#	.
16AAnJJ	.	.
=	=	=
8GGL	8BL 8e 8g	.
16FF#L	8B 8e 8g	.
16EEJJ	.	.
4BB)	8B 8d#X 8f#	.
.	8BJ 8d# 8f#	.
=	=	=
*-	*-	*-
!!!system-decoration: {(s1,s2)}
